X:933
T:Balaich An Asgaich
C:Joe Buchanan's Scottish Tome - Page 546.3
I:546 3
Z:Carl Allison
R:Waltz
L:1/4
M:3/4
K:A
"A"A>A A | "F#m"c B A | "D"A>A A | "A"(F2 E) | "D"d>d d | "A"c B A | "A/C#"c e e | "D"(f2 e) |
"A"f>e e | "F#m"e d c | "Bm"d e f | "E7"(e2 d) | "C#m"c e d | "E7"(c2 B) | "D"A3 | "A"A3 |
"A"A>A A | "F#m"c B A | "D"A>A A | "A"(F2 E) | "D"d>d d | "A"c B c | "A/C#"e>e e | "D"(f2 e) |
"A"f>e e | "F#m7/Bb"e d c | "Bm"d e f | "E7"(e2 d) | "C#m"c e d | "E7"(c2 B) | "D"A3 | "E"A3 |]
